X: 150
T: No_74_Third_Song_of_the_Dog_Feast.krn
%%abc-version 2.0
%%abcx-abcm2ps-target-version 5.9.1 (29 Sep 2008)
%%abc-creator hum2abc beta
%%abcx-conversion-date 2020/08/10 18:54:56
%%gracespace 0 6 6
%%humdrum-veritas 3338882332
%%humdrum-veritas-data 2985933442
%%linebreak <none>
%%barnumbers 0
L: 1/8
M: 2/4
%%staves {1 2}
V: 1 clef=bass
V: 2 clef=bass
K: D
[V:1] [K:clef=bass][M:2/4]D2E2 | 
[V:2] [K:clef=bass][M:2/4](3!accent!G,, z G,, (3!accent!G,, z G,, | 
[V:1] D<D-D2 | 
[V:2] z4 | 
[V:1] D2D2 | 
[V:2] z4 | 
[V:1] B,<B,B,2 | 
[V:2] z4 | 
[V:1] D2E2 | 
[V:2] z4 | 
[V:1] D<D-D2 | 
[V:2] z4 | 
[V:1] D2D2 | 
[V:2] z4 | 
[V:1] B,<B,-B,2 ||  
[V:2] z4 ||  
[V:1] [M:3/4]B,2B,2(3A,A,A, ||  
[V:2] [M:3/4]z6 ||  
[V:1] [M:2/4]G,<G,-G,2 ||  
[V:2] [M:2/4]z4 ||  
[V:1] [M:3/4]E,2E,2(3D,D,D, ||  
[V:2] [M:3/4]z6 ||  
[V:1] [M:2/4]B,,<B,,-B,,2 | 
[V:2] [M:2/4]z4 | 
[V:1] B,,<B,,D,2 | 
[V:2] z4 | 
[V:1] B,,<B,,-B,,2 ||  
[V:2] z4 ||  
[V:1] [M:3/4]G,2G,2(3E,E,E, ||  
[V:2] [M:3/4]z6 ||  
[V:1] [M:2/4]D,D, D,D, | 
[V:2] [M:2/4]z4 | 
[V:1] D,4- | 
[V:2] z4 | 
[V:1] D,4 ||  
[V:2] z4 ||  
[V:1] [M:3/4]D,B,,B,,2D,/B,,3/ ||  
[V:2] [M:3/4]z6 ||  
[V:1] [M:2/4]B,,4 ||  
[V:2] [M:2/4]z4 ||  
[V:1] [M:3/4]E,2E,2(3D,D,D, ||  
[V:2] [M:3/4]z6 ||  
[V:1] [M:2/4](3B,,B,,B,,B,,2- | 
[V:2] [M:2/4]z4 | 
[V:1] B,,4 |]  
[V:2] z4 |]  


